Hatter/scalable/apps/fr.natron.Natron.svg

<?xml version="1.0" encoding="UTF-8" standalone="no"?>
<svg
   xmlns:dc="http://purl.org/dc/elements/1.1/"
   xmlns:cc="http://creativecommons.org/ns#"
   xmlns:rdf="http://www.w3.org/1999/02/22-rdf-syntax-ns#"
   xmlns:svg="http://www.w3.org/2000/svg"
   xmlns="http://www.w3.org/2000/svg"
   xmlns:xlink="http://www.w3.org/1999/xlink"
   xmlns:sodipodi="http://sodipodi.sourceforge.net/DTD/sodipodi-0.dtd"
   xmlns:inkscape="http://www.inkscape.org/namespaces/inkscape"
   height="64"
   width="64"
   version="1.1"
   id="svg13"
   sodipodi:docname="natronIcon256_linux.svg"
   inkscape:version="1.0.1 (3bc2e813f5, 2020-09-07, custom)">
  <metadata
     id="metadata19">
    <rdf:RDF>
      <cc:Work
         rdf:about="">
        <dc:format>image/svg+xml</dc:format>
        <dc:type
           rdf:resource="http://purl.org/dc/dcmitype/StillImage" />
        <dc:title></dc:title>
      </cc:Work>
    </rdf:RDF>
  </metadata>
  <defs
     id="defs17">
    <style
       id="style4"
       type="text/css" />
    <style
       id="style6"
       type="text/css" />
    <style
       id="style8"
       type="text/css" />
    <filter
       color-interpolation-filters="sRGB"
       height="1.048"
       width="1.048"
       y="-0.024"
       x="-0.024"
       id="filter2761-3">
      <feGaussianBlur
         id="feGaussianBlur10"
         stdDeviation="0.14552168" />
    </filter>
    <linearGradient
       gradientUnits="userSpaceOnUse"
       gradientTransform="matrix(3.7796,0,0,3.7796,-0.003213,0.53084)"
       y2="1.17"
       y1="15.576"
       x2="15.65"
       x1="1.3315001"
       id="linearGradient1024">
      <stop
         id="stop13"
         offset="0"
         stop-color="#96aab4" />
      <stop
         id="stop15"
         offset="1"
         stop-color="#a0b4c3" />
    </linearGradient>
    <filter
       color-interpolation-filters="sRGB"
       height="1.048"
       width="1.048"
       y="-0.024"
       x="-0.024"
       id="filter2761">
      <feGaussianBlur
         id="feGaussianBlur4"
         stdDeviation="0.14552168" />
    </filter>
    <linearGradient
       gradientUnits="userSpaceOnUse"
       gradientTransform="translate(16.851507,0.14045)"
       y2="1.1082"
       y1="15.429"
       x2="15.644"
       x1="1.2573"
       id="linearGradient4673">
      <stop
         id="stop7-3"
         offset="0"
         stop-color="#a0b9cd" />
      <stop
         id="stop9-6"
         offset=".47728"
         stop-color="#96b4c8" />
      <stop
         id="stop11"
         offset="1"
         stop-color="#a0b9cd" />
    </linearGradient>
    <filter
       color-interpolation-filters="sRGB"
       height="1.168"
       width="1.168"
       y="-0.084005997"
       x="-0.083994001"
       id="filter917">
      <feGaussianBlur
         id="feGaussianBlur14"
         stdDeviation="0.22223482" />
    </filter>
    <linearGradient
       gradientUnits="userSpaceOnUse"
       gradientTransform="matrix(0.32664815,0,0,0.32664815,0.63054332,0.95372475)"
       y2="4"
       y1="44"
       x2="0"
       id="linearGradient890">
      <stop
         id="stop4-7"
         offset="0"
         stop-color="#FFB900" />
      <stop
         id="stop6"
         offset="1"
         stop-color="#ff0" />
    </linearGradient>
    <filter
       color-interpolation-filters="sRGB"
       height="1.048"
       width="1.048"
       y="-0.024"
       x="-0.024"
       id="filter2761-67">
      <feGaussianBlur
         id="feGaussianBlur9"
         stdDeviation="0.14552168" />
    </filter>
    <linearGradient
       gradientUnits="userSpaceOnUse"
       gradientTransform="matrix(3.7796,0,0,3.7796,66.443573,0.53068)"
       y2="1.1082"
       y1="15.601"
       x2="15.644"
       x1="1.4377"
       id="linearGradient4673-5">
      <stop
         id="stop12-5"
         offset="0"
         stop-color="#dc2828" />
      <stop
         id="stop14-3"
         offset="1"
         stop-color="#fa4141" />
    </linearGradient>
    <linearGradient
       gradientTransform="scale(0.26457812)"
       gradientUnits="userSpaceOnUse"
       y2="9.6700001"
       y1="54.591999"
       x2="34.133999"
       x1="34.133999"
       id="linearGradient915">
      <stop
         id="stop17"
         offset="0"
         stop-color="#ffb900" />
      <stop
         id="stop19"
         offset="1"
         stop-color="#ff0" />
    </linearGradient>
    <linearGradient
       id="linearGradient890-3"
       x2="0"
       y1="44"
       y2="4"
       gradientTransform="matrix(1.2346,0,0,1.2346,3.1419,3.6047)"
       gradientUnits="userSpaceOnUse">
      <stop
         stop-color="#FFB900"
         offset="0"
         id="stop861" />
      <stop
         stop-color="#ff0"
         offset="1"
         id="stop863" />
    </linearGradient>
    <filter
       id="filter2761-6"
       x="-0.024"
       y="-0.024"
       width="1.048"
       height="1.048"
       color-interpolation-filters="sRGB">
      <feGaussianBlur
         stdDeviation="0.14552168"
         id="feGaussianBlur866" />
    </filter>
    <linearGradient
       id="linearGradient1057">
      <stop
         id="stop4-3"
         offset="0"
         stop-color="#fff" />
      <stop
         id="stop6-3"
         offset="1"
         stop-opacity="0"
         stop-color="#fff" />
    </linearGradient>
    <linearGradient
       gradientUnits="userSpaceOnUse"
       gradientTransform="matrix(1.5625,0,0,1.5625,0.40633,-5.1891)"
       y2="52.847"
       y1="27.545"
       x2="34.999"
       x1="34.999"
       id="linearGradient982">
      <stop
         id="stop9"
         offset="0"
         stop-color="#32b4ff" />
      <stop
         id="stop11-5"
         offset="1"
         stop-color="#3287ff" />
    </linearGradient>
    <style
       id="style14"
       type="text/css" />
    <style
       id="style16"
       type="text/css" />
    <linearGradient
       gradientUnits="userSpaceOnUse"
       gradientTransform="matrix(1.5625,0,0,1.5625,-9.2253,1.3231)"
       y2="43.681"
       y1="18.052"
       x2="21.314"
       x1="21.314"
       id="linearGradient1047">
      <stop
         id="stop18"
         offset="0"
         stop-color="#14dc78" />
      <stop
         id="stop20"
         offset="1"
         stop-color="#14a03c" />
    </linearGradient>
    <linearGradient
       gradientUnits="userSpaceOnUse"
       gradientTransform="matrix(1.5625,0,0,1.5625,-8.1072,-10.908)"
       y2="37.368"
       y1="12.316"
       x2="41.729"
       x1="41.729"
       id="linearGradient1049">
      <stop
         id="stop23"
         offset="0"
         stop-color="#ff3c64" />
      <stop
         id="stop25"
         offset="1"
         stop-color="#ff4628" />
    </linearGradient>
    <linearGradient
       xlink:href="#linearGradient1057"
       gradientUnits="userSpaceOnUse"
       gradientTransform="matrix(1,0,0,1.2271,0.20646,-10.975)"
       y2="39.768"
       y1="32.234"
       x2="34.427"
       x1="34.427"
       id="linearGradient1059" />
    <linearGradient
       xlink:href="#linearGradient1057"
       gradientUnits="userSpaceOnUse"
       gradientTransform="matrix(1,0,0,1.2271,-12.55,-19.793)"
       y2="39.768"
       y1="32.234"
       x2="34.427"
       x1="34.427"
       id="linearGradient1063" />
    <linearGradient
       xlink:href="#linearGradient1057"
       gradientUnits="userSpaceOnUse"
       gradientTransform="matrix(1,0,0,1.2271,5.7554,-25.761)"
       y2="39.768"
       y1="32.234"
       x2="34.427"
       x1="34.427"
       id="linearGradient1067" />
    <filter
       color-interpolation-filters="sRGB"
       height="1.048"
       width="1.048"
       y="-.024"
       x="-.024"
       id="filter2761-62">
      <feGaussianBlur
         id="feGaussianBlur31"
         stdDeviation="0.14552168" />
    </filter>
    <linearGradient
       gradientUnits="userSpaceOnUse"
       gradientTransform="matrix(3.7796,0,0,3.7796,72.4059,0.53085)"
       y2="1.17"
       y1="15.576"
       x2="15.65"
       x1="1.3315"
       id="linearGradient1024-9">
      <stop
         id="stop34"
         offset="0"
         stop-color="#dddfe1" />
      <stop
         id="stop36"
         offset="1"
         stop-opacity=".99608"
         stop-color="#f3f4f6" />
    </linearGradient>
    <filter
       color-interpolation-filters="sRGB"
       height="1.048"
       width="1.048"
       y="-.024"
       x="-.024"
       id="filter2761-3-1">
      <feGaussianBlur
         id="feGaussianBlur2"
         stdDeviation="0.14552168" />
    </filter>
    <linearGradient
       gradientUnits="userSpaceOnUse"
       gradientTransform="translate(0 -.07421)"
       y2="1.17"
       y1="15.576"
       x2="15.65"
       x1="1.3315"
       id="linearGradient1024-6">
      <stop
         id="stop5"
         offset="0"
         stop-color="#dddfe1" />
      <stop
         id="stop7"
         offset="1"
         stop-opacity=".99608"
         stop-color="#f3f4f6" />
    </linearGradient>
    <filter
       inkscape:collect="always"
       style="color-interpolation-filters:sRGB"
       id="filter1057-2"
       x="-0.027000001"
       width="1.054"
       y="-0.027000001"
       height="1.054">
      <feGaussianBlur
         inkscape:collect="always"
         stdDeviation="0.61875"
         id="feGaussianBlur1059-7" />
    </filter>
    <linearGradient
       inkscape:collect="always"
       id="linearGradient1051-9">
      <stop
         style="stop-color:#dee0e2;stop-opacity:1"
         offset="0"
         id="stop1047-3" />
      <stop
         style="stop-color:#f1f3f5;stop-opacity:0.99607843"
         offset="1"
         id="stop1049-6" />
    </linearGradient>
    <filter
       id="filter2761-6-0"
       x="-.024"
       y="-.024"
       width="1.048"
       height="1.048"
       color-interpolation-filters="sRGB">
      <feGaussianBlur
         stdDeviation="0.14552168"
         id="feGaussianBlur954" />
    </filter>
    <linearGradient
       id="linearGradient1024-6-7"
       x1="1.3315"
       x2="15.65"
       y1="15.576"
       y2="1.17"
       gradientUnits="userSpaceOnUse"
       gradientTransform="matrix(3.779602,0,0,3.779602,2.0067227,-71.427714)">
      <stop
         stop-color="#dddfe1"
         offset="0"
         id="stop957" />
      <stop
         stop-color="#f3f4f6"
         stop-opacity=".99608"
         offset="1"
         id="stop959" />
    </linearGradient>
    <linearGradient
       inkscape:collect="always"
       xlink:href="#linearGradient1051-9"
       id="linearGradient1182"
       gradientUnits="userSpaceOnUse"
       gradientTransform="translate(131.5,-0.50999931)"
       x1="-127"
       y1="60"
       x2="-127"
       y2="5" />
  </defs>
  <sodipodi:namedview
     pagecolor="#ffffff"
     bordercolor="#666666"
     borderopacity="1"
     objecttolerance="10"
     gridtolerance="10"
     guidetolerance="10"
     inkscape:pageopacity="0"
     inkscape:pageshadow="2"
     inkscape:window-width="1920"
     inkscape:window-height="992"
     id="namedview15"
     showgrid="false"
     inkscape:zoom="6.1208931"
     inkscape:cx="85.218604"
     inkscape:cy="27.42153"
     inkscape:window-x="0"
     inkscape:window-y="0"
     inkscape:window-maximized="1"
     inkscape:current-layer="svg13" />
  <linearGradient
     id="a"
     gradientTransform="matrix(1.1964631,-0.09976047,0.09976047,1.1964631,79.762327,4.097122)"
     gradientUnits="userSpaceOnUse"
     x1="27.3748"
     x2="23.996687"
     y1="43.918037"
     y2="4.0814948">
    <stop
       offset="0"
       stop-color="#95a9bb"
       id="stop2" />
    <stop
       offset="1"
       stop-color="#cad3dc"
       id="stop4" />
  </linearGradient>
  <rect
     style="opacity:0.3;fill:#141414;fill-opacity:1;stroke-width:2.74436;stroke-linecap:round;filter:url(#filter1057-2)"
     id="rect1055-1"
     width="55"
     height="55"
     x="4.4999995"
     y="4.4999995"
     ry="15" />
  <rect
     ry="14.999999"
     y="4.5000019"
     x="4.5000019"
     height="54.999996"
     width="54.999996"
     id="rect1045-8"
     style="fill:url(#linearGradient1182);fill-opacity:1;stroke-width:2.74436;stroke-linecap:round" />
  <g
     id="g70"
     fill="#5e4aa6">
    <g
       id="g32"
       image-rendering="optimizeSpeed"
       transform="translate(-80.134,-57.985)">
      <circle
         id="circle24"
         r="0"
         cy="-1241.6"
         cx="-1248.7" />
      <circle
         id="circle26"
         fill-rule="evenodd"
         r="0"
         cy="23.855"
         cx="-149.14999" />
      <circle
         id="circle28"
         r="0"
         cy="-1241.6"
         cx="-1248.7" />
      <circle
         id="circle30"
         fill-rule="evenodd"
         r="0"
         cy="23.855"
         cx="-149.14999" />
    </g>
    <circle
       id="circle34"
       r="0"
       cy="-1241.6"
       cx="-1248.7" />
    <circle
       id="circle36"
       fill-rule="evenodd"
       r="0"
       cy="23.855"
       cx="-149.14999" />
    <g
       id="g68"
       stroke-width="0.26458"
       transform="matrix(3.7796,0,0,3.7796,5.8415e-4,-1.7177e-4)">
      <g
         id="g46"
         transform="translate(-0.0272,0.0065001)">
        <circle
           id="circle38"
           r="0"
           cy="-328.38"
           cx="-330.35001" />
        <circle
           id="circle40"
           r="0"
           cy="-326.25"
           cx="-312.10999" />
        <circle
           id="circle42"
           r="0"
           cy="-333.07001"
           cx="-306.01999" />
        <circle
           id="circle44"
           r="0"
           cy="-326.01001"
           cx="-308.84" />
      </g>
      <g
         id="g56"
         transform="translate(-0.0272,0.0065001)">
        <circle
           id="circle48"
           r="0"
           cy="-328.38"
           cx="-330.35001" />
        <circle
           id="circle50"
           r="0"
           cy="-326.25"
           cx="-312.10999" />
        <circle
           id="circle52"
           r="0"
           cy="-333.07001"
           cx="-306.01999" />
        <circle
           id="circle54"
           r="0"
           cy="-326.01001"
           cx="-308.84" />
      </g>
      <g
         id="g66"
         transform="translate(-0.02705,0.0064503)">
        <circle
           id="circle58"
           r="0"
           cy="-328.38"
           cx="-330.35001" />
        <circle
           id="circle60"
           r="0"
           cy="-326.25"
           cx="-312.10999" />
        <circle
           id="circle62"
           r="0"
           cy="-333.07001"
           cx="-306.01999" />
        <circle
           id="circle64"
           r="0"
           cy="-326.01001"
           cx="-308.84" />
      </g>
    </g>
  </g>
  <g
     id="g30"
     fill="#5e4aa6"
     transform="translate(-79.198861,-30.995432)">
    <circle
       id="circle24-6"
       r="0"
       cy="-1241.6"
       cx="-1248.7" />
    <circle
       id="circle26-7"
       r="0"
       cy="-1301.8"
       cx="-1140.3" />
    <circle
       id="circle28-5"
       r="0"
       cy="-1246"
       cx="-1158.1" />
  </g>
  <circle
     id="circle36-3"
     fill="#5e4aa6"
     r="0"
     cy="-1298.6954"
     cx="-1236.4989"
     style="stroke-width:1" />
  <circle
     id="circle38-5"
     fill-rule="evenodd"
     fill="#5e4aa6"
     r="0"
     cy="-33.178333"
     cx="-136.95486"
     style="stroke-width:1" />
  <path
     d="M 20.816652,15.90494 12.467121,33.630823 23.636759,49.727514 22.226776,32.817068 33.405144,48.923885 43.172483,48.107615 51.532879,30.373509 40.351331,14.272486 41.761751,31.188252 30.583993,15.088713 Z"
     fill="#444d54"
     stroke="#444d54"
     stroke-linecap="round"
     stroke-linejoin="round"
     stroke-width="0.934256"
     id="path1039" />
  <circle
     cx="-1329.125"
     cy="-1317.1454"
     r="0"
     fill="#5e4aa6"
     stroke-width="1.00001"
     id="circle850" />
  <circle
     id="circle41"
     fill="#5e4aa6"
     r="0"
     cy="-1241.6"
     cx="-1317.0176" />
  <circle
     id="circle43"
     fill-rule="evenodd"
     fill="#5e4aa6"
     r="0"
     cy="23.855"
     cx="-217.46767" />
</svg>

<?xml version="1.0" encoding="UTF-8"?>
<svg id="svg13" width="64" height="64" version="1.1" xmlns="http://www.w3.org/2000/svg" xmlns:cc="http://creativecommons.org/ns#" xmlns:dc="http://purl.org/dc/elements/1.1/" xmlns:rdf="http://www.w3.org/1999/02/22-rdf-syntax-ns#" xmlns:xlink="http://www.w3.org/1999/xlink">
 <metadata id="metadata19">
  <rdf:RDF>
   <cc:Work rdf:about="">
    <dc:format>image/svg+xml</dc:format>
    <dc:type rdf:resource="http://purl.org/dc/dcmitype/StillImage"/>
    <dc:title/>
   </cc:Work>
  </rdf:RDF>
 </metadata>
 <defs id="defs17">
  <style id="style4" type="text/css"/>
  <style id="style6" type="text/css"/>
  <style id="style8" type="text/css"/>
  <style id="style14" type="text/css"/>
  <style id="style16" type="text/css"/>
  <filter id="filter1057-2" x="-.027" y="-.027" width="1.054" height="1.054" color-interpolation-filters="sRGB">
   <feGaussianBlur id="feGaussianBlur1059-7" stdDeviation="0.61875"/>
  </filter>
  <linearGradient id="linearGradient1182" x1="-127" x2="-127" y1="60" y2="5" gradientTransform="translate(131.5 -.51)" gradientUnits="userSpaceOnUse">
   <stop id="stop1047-3" stop-color="#dee0e2" offset="0"/>
   <stop id="stop1049-6" stop-color="#f1f3f5" stop-opacity=".99608" offset="1"/>
  </linearGradient>
 </defs>
 <rect id="rect1055-1" x="4.5" y="4.5" width="55" height="55" ry="15" fill="#141414" filter="url(#filter1057-2)" opacity=".3" stroke-linecap="round" stroke-width="2.7444"/>
 <rect id="rect1045-8" x="4.5" y="4.5" width="55" height="55" ry="15" fill="url(#linearGradient1182)" stroke-linecap="round" stroke-width="2.7444"/>
 <g id="g70" fill="#5e4aa6">
  <g id="g32" transform="translate(-80.134,-57.985)" image-rendering="optimizeSpeed">
   <circle id="circle24" cx="-1248.7" cy="-1241.6" r="0"/>
   <circle id="circle26" cx="-149.15" cy="23.855" r="0" fill-rule="evenodd"/>
   <circle id="circle28" cx="-1248.7" cy="-1241.6" r="0"/>
   <circle id="circle30" cx="-149.15" cy="23.855" r="0" fill-rule="evenodd"/>
  </g>
  <circle id="circle34" cx="-1248.7" cy="-1241.6" r="0"/>
  <circle id="circle36" cx="-149.15" cy="23.855" r="0" fill-rule="evenodd"/>
  <g id="g68" transform="matrix(3.7796,0,0,3.7796,5.8415e-4,-1.7177e-4)" stroke-width=".26458">
   <g id="g46" transform="translate(-.0272 .0065001)">
    <circle id="circle38" cx="-330.35" cy="-328.38" r="0"/>
    <circle id="circle40" cx="-312.11" cy="-326.25" r="0"/>
    <circle id="circle42" cx="-306.02" cy="-333.07" r="0"/>
    <circle id="circle44" cx="-308.84" cy="-326.01" r="0"/>
   </g>
   <g id="g56" transform="translate(-.0272 .0065001)">
    <circle id="circle48" cx="-330.35" cy="-328.38" r="0"/>
    <circle id="circle50" cx="-312.11" cy="-326.25" r="0"/>
    <circle id="circle52" cx="-306.02" cy="-333.07" r="0"/>
    <circle id="circle54" cx="-308.84" cy="-326.01" r="0"/>
   </g>
   <g id="g66" transform="translate(-.02705 .0064503)">
    <circle id="circle58" cx="-330.35" cy="-328.38" r="0"/>
    <circle id="circle60" cx="-312.11" cy="-326.25" r="0"/>
    <circle id="circle62" cx="-306.02" cy="-333.07" r="0"/>
    <circle id="circle64" cx="-308.84" cy="-326.01" r="0"/>
   </g>
  </g>
 </g>
 <g id="g30" transform="translate(-79.199 -30.995)" fill="#5e4aa6">
  <circle id="circle24-6" cx="-1248.7" cy="-1241.6" r="0"/>
  <circle id="circle26-7" cx="-1140.3" cy="-1301.8" r="0"/>
  <circle id="circle28-5" cx="-1158.1" cy="-1246" r="0"/>
 </g>
 <circle id="circle36-3" cx="-1236.5" cy="-1298.7" r="0" fill="#5e4aa6"/>
 <circle id="circle38-5" cx="-136.95" cy="-33.178" r="0" fill="#5e4aa6" fill-rule="evenodd"/>
 <path id="path1039" d="m20.817 15.905-8.3495 17.726 11.17 16.097-1.41-16.91 11.178 16.107 9.7673-0.81627 8.3604-17.734-11.182-16.101 1.4104 16.916-11.178-16.1z" fill="#444d54" stroke="#444d54" stroke-linecap="round" stroke-linejoin="round" stroke-width=".93426"/>
 <circle id="circle850" cx="-1329.1" cy="-1317.1" r="0" fill="#5e4aa6"/>
 <circle id="circle41" cx="-1317" cy="-1241.6" r="0" fill="#5e4aa6"/>
 <circle id="circle43" cx="-217.47" cy="23.855" r="0" fill="#5e4aa6" fill-rule="evenodd"/>
</svg>
